X:1
T:Mal se cura muyto
T:Anonymous
T:Source : Cancionero de Uppsala : Villancicos---Venetia---G.Scotto---1556. Editor : André Vierendeels (08/04/17).
T:Notes : Original clefs : C3, C3 Original note values have been halved Editorial accidentals above the sraff Dotted brackets indicate black notes Square brackets indicate ligatures 
T:Mal se cura muyto
T:©
T:©
C:Anonymous
Z:©
%%score [ 1 2 ]
L:1/8
Q:1/4=120
M:3/2
K:C
V:1 treble-8 nm="Tenor 1" snm="T 1"
V:2 treble-8 nm="Tenor 2" snm="T 2"
V:1
 z12 | z12 | A8 c4 | B4 G4 A4 | c4 d6 d2 | A8 z4 | z4 e4 d4 | B4 A4 c4- | c4 d8 | e8 d4 | %10
w: ||Mal se|cu- * *|ra muy- to|mal,|mas en|po- co can|_ do|du- ra,|
w: ||A ca-|ba- res gran-|* de be-|yn,|poys en|po- co can-|* do|tu- ra,|
 z4 e4 f4 | g8 f4 | e6 c2 d4 | B4 e4 f4 | g8 f4 | e6 c2 d4 | B4 e4 d4 | c4 B8 | A12 || c4 c4 d4 | %20
w: muy- to|mas pe-|or se- cu-|ra, muy- to|mas pe-|or se- cu-|ra, pe- or|se- cu-|ra.|En muy- to|
w: muy- to|mas pe-|or se- cu-|ra, muy- to|mas pe-|or se- cu-|ta, pe- or|se- cu-|ra.|Por que te-|
 e6 c2 d4 | e8 d4 | e4 A4 d4 | B4 c6 B2 | A8 G4 | A12 |] %26
w: mal can- do|ven non|po- de muy-|to tu- *||rar.|
w: nen de- ca-|bar muy-|to pre- sto|a- queyn _|_ lo|teyn.|
V:2
 A8 c4 | B4 G4 A4- | A2 B2 c2 d2 e4- | e4 d6 c2 | c8 B4 | c4 e4 d4 | B4 A4 B4 | d6 c2 A2 B2 | %8
w: Mal se|cu- * *|* * * ra muy-||* to|mal, mas en|po- co can-|* do tu- *|
w: A- ca-|ba- res gran-||||* poys en|po- co can-|* do tu- *|
 c8 B4 | c4 e4 f4 | g4 c4 d4 | e6 c2 d4 | z4 e4 f4 | g4 c4 d4 | e6 c2 d4 | G4 A4 B4 | G4 c6 B2 | %17
w: |ra, muy- to|mas, muy- to|mas pe- or,|muy- to|mas, muy- to|mas pe- or,|muy- to mas|pe- or se-|
w: |ra muy- to|mas, muy- to|mas pe- or,|muy- to|mas, muy- to|mas pe- or,|muy- to mas|pe- or, se-|
"^#" A8 G4 | A12 || z4 F4 F4 | G4 A6 F2 | G4 A4 B4 |"^#" c8 B4 | d4 e4 A4 | c4 B8 | A12 |] %26
w: cu- *|ra.|En muy-|to mal can-|do ven non|po- de|muy- * to|tu- *|rar.|
w: cu- *|ra.|Por que|te- nen de-|ca- bar muy-|to pre-|sto _ a|queyn lot|teyn.|

